!!!OTL: Gerstebinden
!!!OTL-incipit:Es war eins Bauren Toechterlein,
!!!ARE: Europa, Mitteleuropa, Deutschland
!!!YOR: 6, S. 202
!!    1534 gedruckt in Nuernberg; Satz: Ludwig Senfl
!!!SCT: Q0135
!!!TXL: @@DE
!!!YEM: Copyright 1995, estate of Helmut Schaffrath.
**kern	**text
*ICvox	*
*clefF4	*
*M2/2	*
*met(c|)	*
*k[]	*
4r	.
{4GG	Es
4GG	war
4GG	eins
=1-	=1-
4GG	Bauern
4GG	.
4AA	Töchter-
4AA	.
=2-	=2-
2AA}	-lein,
{2E	wollt'
=3-	=3-
4.F	Ger-
8E	-stern
2D	auf-
=4-	=4-
2C	-bin-
2D	-den,
=5-	=5-
2r	.
4r}	.
{4D	do
=6-	=6-
2E	sta-
4E	-chen
2E	sie
=7-	=7-
.	.
4E	die
2F	Di-
=8-	=8-
1E}	-stel
=9-	=9-
{2D	wohl
4C	in
4AA	die
=10-	=10-
4.BB	Fin-
8C	.
2D	-ger,
=11-	=11-
2r}	.
{2D	wohl
=12-	=12-
4C	in
4AA	die
4.BB	Fin-
8C	.
=13-	=13-
2D	-ger.
2r	.
=14-	=14-
2r}	.
{4D	Hochscho
4D	.
=15-	=15-
4C	hei-
4BB	-a
2GG	ho,
=16-	=16-
2r	.
4r}	.
{4GG	wohl
=17-	=17-
4.AA	in
8BB	.
4C	.
2D	.
=18-	=18-
.	.
4E	.
4D	die
2C	Fin-
=19-	=19-
.	.
4BB	.
2AA	.
=20	=20
2GG}	-ger.
{4AA	Das
2FF	Ho-
=21-	=21-
.	.
4GG	-scho
2D	heia
=22	=22
!LO:N:vis=0	!
1GG}	ho.
==	==
!!!AGN: Ballade, Beischlaf, Leiden
!! Bass - Stimme in einem fuenfstimmigen Satz (cf.) von Ludwig Senfl.
!!    Satzbedingte ganztaktige Pausen Weggelassen, Schlussnote gekuerzt.
!!    Grundton in der grossen Oktave.
!!!ONB: ESAC (Essen Associative Code) Database: BALLADE
!!!AMT: simple duple
!!!AIN: vox
!!!EED: Helmut Schaffrath
!!!EEV: 1.0
!!!source: Deutsche Volkslieder mit ihren Melodien Balladen. Herausgegeben vom Deutschen Volksliedarchiv. Sechster Band. Freiburg/Breisgau 1976.
!!!page: 202
!!!ENC: Anna Maria Matuszewska
!!!EEV: 2025/03/06
*-	*-
